img/button/primary-lg-dayglow.svg

<svg height="60" viewBox="0 0 300 60" width="300" xmlns="http://www.w3.org/2000/svg"><g fill="none" fill-rule="evenodd"><rect fill="#e21e8e" height="60" rx="5" stroke="#e21e8e" width="300"/><path d="m114.76 38.28c.693333 0 1.37-.0666667 2.03-.2s1.203333-.3533333 1.63-.66l-.56-2.24c-.306667.1866667-.666667.34-1.08.46s-.92.18-1.52.18c-.64 0-1.203333-.1166667-1.69-.35s-.893333-.56-1.22-.98-.57-.9266667-.73-1.52-.24-1.25-.24-1.97c0-1.6533333.336667-2.8733333 1.01-3.66s1.563333-1.18 2.67-1.18c.6 0 1.11.0333333 1.53.1s.783333.1733333 1.09.32l.54-2.32c-.36-.1466667-.816667-.2733333-1.37-.38s-1.23-.16-2.03-.16c-.746667 0-1.493333.1233333-2.24.37s-1.423333.6533333-2.03 1.22-1.1 1.3133333-1.48 2.24-.57 2.0766667-.57 3.45c0 1.32.17 2.4433333.51 3.37s.796667 1.68 1.37 2.26 1.236667 1 1.99 1.26 1.55.39 2.39.39zm14.58-.28v-2.44h-6.12v-11.56h-2.74v14zm4.8 0v-14h-2.74v14zm8.86.28c.693333 0 1.37-.0666667 2.03-.2s1.203333-.3533333 1.63-.66l-.56-2.24c-.306667.1866667-.666667.34-1.08.46s-.92.18-1.52.18c-.64 0-1.203333-.1166667-1.69-.35s-.893333-.56-1.22-.98-.57-.9266667-.73-1.52-.24-1.25-.24-1.97c0-1.6533333.336667-2.8733333 1.01-3.66s1.563333-1.18 2.67-1.18c.6 0 1.11.0333333 1.53.1s.783333.1733333 1.09.32l.54-2.32c-.36-.1466667-.816667-.2733333-1.37-.38s-1.23-.16-2.03-.16c-.746667 0-1.493333.1233333-2.24.37s-1.423333.6533333-2.03 1.22-1.1 1.3133333-1.48 2.24-.57 2.0766667-.57 3.45c0 1.32.17 2.4433333.51 3.37s.796667 1.68 1.37 2.26 1.236667 1 1.99 1.26 1.55.39 2.39.39zm8.46-.28v-5.98h.72l4.14 5.98h3.38l-4.66-6.58-1.12-.78 1.08-.76 4.08-5.88h-3.12l-3.86 5.92-.64.28v-6.2h-2.74v14zm17.44 0v-7.28l-.4-2.76h.1l.88 2.22 3.14 5.24h.88l2.98-5.22.86-2.24h.12l-.3 2.78v7.26h2.74v-14h-2.48l-3.54 6.36-.6 1.64h-.08l-.66-1.6-3.74-6.4h-2.5v14zm22.16 0v-2.44h-5.66v-3.42h5.06v-2.44h-5.06v-3.26h5.56v-2.44h-8.3v14z" fill="#fcf3f8" fill-rule="nonzero"/></g></svg>

<svg xmlns="http://www.w3.org/2000/svg" width="300" height="60" viewBox="0 0 300 60">
  <g fill="none" fill-rule="evenodd">
    <rect width="300" height="60" fill="#E21E8E" stroke="#E21E8E" rx="5"/>
    <path fill="#FCF3F8" fill-rule="nonzero" d="M114.76,38.28 C115.453333,38.28 116.13,38.2133333 116.79,38.08 C117.45,37.9466667 117.993333,37.7266667 118.42,37.42 L118.42,37.42 L117.86,35.18 C117.553333,35.3666667 117.193333,35.52 116.78,35.64 C116.366667,35.76 115.86,35.82 115.26,35.82 C114.62,35.82 114.056667,35.7033333 113.57,35.47 C113.083333,35.2366667 112.676667,34.91 112.35,34.49 C112.023333,34.07 111.78,33.5633333 111.62,32.97 C111.46,32.3766667 111.38,31.72 111.38,31 C111.38,29.3466667 111.716667,28.1266667 112.39,27.34 C113.063333,26.5533333 113.953333,26.16 115.06,26.16 C115.66,26.16 116.17,26.1933333 116.59,26.26 C117.01,26.3266667 117.373333,26.4333333 117.68,26.58 L117.68,26.58 L118.22,24.26 C117.86,24.1133333 117.403333,23.9866667 116.85,23.88 C116.296667,23.7733333 115.62,23.72 114.82,23.72 C114.073333,23.72 113.326667,23.8433333 112.58,24.09 C111.833333,24.3366667 111.156667,24.7433333 110.55,25.31 C109.943333,25.8766667 109.45,26.6233333 109.07,27.55 C108.69,28.4766667 108.5,29.6266667 108.5,31 C108.5,32.32 108.67,33.4433333 109.01,34.37 C109.35,35.2966667 109.806667,36.05 110.38,36.63 C110.953333,37.21 111.616667,37.63 112.37,37.89 C113.123333,38.15 113.92,38.28 114.76,38.28 Z M129.34,38 L129.34,35.56 L123.22,35.56 L123.22,24 L120.48,24 L120.48,38 L129.34,38 Z M134.14,38 L134.14,24 L131.4,24 L131.4,38 L134.14,38 Z M143,38.28 C143.693333,38.28 144.37,38.2133333 145.03,38.08 C145.69,37.9466667 146.233333,37.7266667 146.66,37.42 L146.66,37.42 L146.1,35.18 C145.793333,35.3666667 145.433333,35.52 145.02,35.64 C144.606667,35.76 144.1,35.82 143.5,35.82 C142.86,35.82 142.296667,35.7033333 141.81,35.47 C141.323333,35.2366667 140.916667,34.91 140.59,34.49 C140.263333,34.07 140.02,33.5633333 139.86,32.97 C139.7,32.3766667 139.62,31.72 139.62,31 C139.62,29.3466667 139.956667,28.1266667 140.63,27.34 C141.303333,26.5533333 142.193333,26.16 143.3,26.16 C143.9,26.16 144.41,26.1933333 144.83,26.26 C145.25,26.3266667 145.613333,26.4333333 145.92,26.58 L145.92,26.58 L146.46,24.26 C146.1,24.1133333 145.643333,23.9866667 145.09,23.88 C144.536667,23.7733333 143.86,23.72 143.06,23.72 C142.313333,23.72 141.566667,23.8433333 140.82,24.09 C140.073333,24.3366667 139.396667,24.7433333 138.79,25.31 C138.183333,25.8766667 137.69,26.6233333 137.31,27.55 C136.93,28.4766667 136.74,29.6266667 136.74,31 C136.74,32.32 136.91,33.4433333 137.25,34.37 C137.59,35.2966667 138.046667,36.05 138.62,36.63 C139.193333,37.21 139.856667,37.63 140.61,37.89 C141.363333,38.15 142.16,38.28 143,38.28 Z M151.46,38 L151.46,32.02 L152.18,32.02 L156.32,38 L159.7,38 L155.04,31.42 L153.92,30.64 L155,29.88 L159.08,24 L155.96,24 L152.1,29.92 L151.46,30.2 L151.46,24 L148.72,24 L148.72,38 L151.46,38 Z M168.9,38 L168.9,30.72 L168.5,27.96 L168.6,27.96 L169.48,30.18 L172.62,35.42 L173.5,35.42 L176.48,30.2 L177.34,27.96 L177.46,27.96 L177.16,30.74 L177.16,38 L179.9,38 L179.9,24 L177.42,24 L173.88,30.36 L173.28,32 L173.2,32 L172.54,30.4 L168.8,24 L166.3,24 L166.3,38 L168.9,38 Z M191.06,38 L191.06,35.56 L185.4,35.56 L185.4,32.14 L190.46,32.14 L190.46,29.7 L185.4,29.7 L185.4,26.44 L190.96,26.44 L190.96,24 L182.66,24 L182.66,38 L191.06,38 Z"/>
  </g>
</svg>
